FINK
CUT[IM SCHWARZEN WALLFISCH]
REG[Europa, Mitteleuropa, Deutschland]
KEY[F0492  16  G 6/8]
MEL[-5_  1_.-72_3_.21_  2_.12_4_.3
    2_  -6_.-5#-6_1_.-7-6_  3___0_
    5_  5__4_-6__44  4__3_-5__
    3_  3__2_3__4_  5__.^__
    5_  5__4_-6__44  4__3_-5__
    3_  3__2_4__3_  1___0_ //] >>
FCT[Studenten -, Trink - Lied]
